data/styles/clear/style-clear/symbols/department_store-m.svg

<svg height="24" viewBox="0 0 24 24" width="24"><g fill="none" fill-rule="evenodd"><circle cx="12" cy="12" fill="#fff" opacity=".6" r="12"/><circle cx="12" cy="12" fill="#8c5f93" r="11"/><path d="m10.6363636 6.31973333.3763637-.3864h1.9745454l.3763637.3864v1.48026667h.9090909v-2.25306667l-.5327273-.54693333h-3.48l-.53272727.54693333v2.25306667h.90909087zm3.6363637 3.34693334v3.18640003l-.5327273.5469333h-3.48l-.53272727-.5469333v-3.18640003h-2.72727273v7.46666663c0 1.0304.81454545 1.8666667 1.81818182 1.8666667h6.36363638c1.0036363 0 1.8181818-.8362667 1.8181818-1.8666667v-7.46666663zm-3.6363637 2.41360003.3763637.3864h1.9745454l.3763637-.3864v-2.41360003h-2.7272728z" fill="#fff"/></g></svg>

<svg width="24" height="24" viewBox="0 0 24 24">
  <g fill="none" fill-rule="evenodd">
    <circle cx="12" cy="12" r="12" fill="#FFF" opacity=".6"/>
    <circle cx="12" cy="12" r="11" fill="#8C5F93"/>
    <path fill="#FFF" d="M10.6363636,6.31973333 L11.0127273,5.93333333 L12.9872727,5.93333333 L13.3636364,6.31973333 L13.3636364,7.8 L14.2727273,7.8 L14.2727273,5.54693333 L13.74,5 L10.26,5 L9.72727273,5.54693333 L9.72727273,7.8 L10.6363636,7.8 L10.6363636,6.31973333 L10.6363636,6.31973333 Z M14.2727273,9.66666667 L14.2727273,12.8530667 L13.74,13.4 L10.26,13.4 L9.72727273,12.8530667 L9.72727273,9.66666667 L7,9.66666667 L7,17.1333333 C7,18.1637333 7.81454545,19 8.81818182,19 L15.1818182,19 C16.1854545,19 17,18.1637333 17,17.1333333 L17,9.66666667 L14.2727273,9.66666667 L14.2727273,9.66666667 Z M10.6363636,12.0802667 L11.0127273,12.4666667 L12.9872727,12.4666667 L13.3636364,12.0802667 L13.3636364,9.66666667 L10.6363636,9.66666667 L10.6363636,12.0802667 L10.6363636,12.0802667 Z"/>
  </g>
</svg>
